dist/svg/icons/beaker.svg

<svg height="16" width="16" xmlns="http://www.w3.org/2000/svg" viewBox="0 0 16 16">
  <path d="M14.38 14.59L11 7V3h1v-1H3v1h1v4L0.63 14.59c-0.3 0.66 0.19 1.41 0.91 1.41h11.94c0.72 0 1.2-0.75 0.91-1.41zM3.75 10l1.25-3V3h5v4l1.25 3H3.75z m4.25-2h1v1h-1v-1z m-1-1h-1v-1h1v1z m0-3h1v1h-1v-1z m0-3h-1V0h1v1z" />
</svg>

<svg xmlns="http://www.w3.org/2000/svg" width="16" height="16" viewBox="0 0 16 16"><path d="M14.38 14.59L11 7V3h1V2H3v1h1v4L.63 14.59A1 1 0 0 0 1.54 16h11.94c.72 0 1.2-.75.91-1.41h-.01zM3.75 10L5 7V3h5v4l1.25 3h-7.5zM8 8h1v1H8V8zM7 7H6V6h1v1zm0-3h1v1H7V4zm0-3H6V0h1v1z"/></svg>
